client/public/badges/quiz-creator.svg

<svg width="128" height="128" viewBox="0 0 128 128" fill="none" xmlns="http://www.w3.org/2000/svg">
<path fill-rule="evenodd" clip-rule="evenodd" d="M112.75 67.39L114.741 70.0679C117.059 73.171 116.075 77.5705 112.619 79.377L109.666 80.9923C107.215 82.3101 105.903 85.0305 106.406 87.7297L107.019 90.9816C107.74 94.7647 104.897 98.3141 100.981 98.5266L97.6122 98.7179C94.8121 98.8879 92.4277 100.78 91.6839 103.415L90.787 106.603C89.737 110.322 85.6244 112.299 81.9931 110.833L78.8649 109.579C76.2617 108.537 73.2867 109.238 71.4491 111.3L69.2397 113.808C66.6803 116.699 62.0864 116.741 59.4614 113.872L57.2082 111.406C55.3488 109.366 52.3519 108.728 49.7706 109.812L46.6643 111.13C43.0767 112.66 38.9204 110.748 37.8266 107.049L36.8859 103.861C36.0984 101.226 33.6921 99.3555 30.8921 99.2493L27.5233 99.1005C23.5857 98.9517 20.6981 95.4448 21.3544 91.6617L21.9013 88.4311C22.3825 85.7319 21.0263 83.0327 18.5543 81.7362L15.5793 80.1634C12.123 78.3356 11.0511 73.9786 13.3261 70.8331L15.3168 68.1126C16.9355 65.8597 16.9137 62.8629 15.2511 60.6525L13.2605 57.9746C10.9417 54.8715 11.9261 50.4933 15.3605 48.623L18.3137 47.0077C20.7638 45.6899 22.0763 42.9695 21.5731 40.2703L20.9606 37.0184C20.2387 33.2565 23.0825 29.7072 26.9983 29.4946L30.3671 29.3033C33.1452 29.1546 35.5297 27.263 36.2953 24.585L37.1922 21.397C38.2422 17.6776 42.3548 15.701 45.9861 17.1675L49.1143 18.4215C51.7175 19.4629 54.6926 18.7615 56.5301 16.6999L58.7395 14.192C61.2989 11.3015 65.8928 11.259 68.5178 14.1282L70.771 16.5936C72.6304 18.6552 75.6273 19.2929 78.2086 18.2089L81.315 16.8912C84.9025 15.3609 89.0589 17.2738 90.1526 20.9719L91.0933 24.16C91.8808 26.7954 94.2871 28.6657 97.0871 28.772L100.456 28.9208C104.394 29.0696 107.281 32.5764 106.625 36.3596L106.056 39.6326C105.575 42.3319 106.931 45.0311 109.403 46.3276L112.378 47.9003C115.834 49.7281 116.906 54.0852 114.631 57.2307L112.684 59.9299C111.066 62.1828 111.087 65.1796 112.75 67.39ZM64 104C86.0914 104 104 86.0914 104 64C104 41.9086 86.0914 24 64 24C41.9086 24 24 41.9086 24 64C24 86.0914 41.9086 104 64 104Z" fill="#8FA5A9" style="fill:#8FA5A9;fill:color(display-p3 0.5605 0.6454 0.6645);fill-opacity:1;"/>
<path d="M64 79.0003V55.667" stroke="#8FA5A9" style="stroke:#8FA5A9;stroke:color(display-p3 0.5608 0.6471 0.6627);stroke-opacity:1;" stroke-width="3.33333" stroke-linecap="round" stroke-linejoin="round"/>
<path d="M78.0001 61.2858L81.2859 61.2858L84.5717 61.2858" stroke="#8FA5A9" style="stroke:#8FA5A9;stroke:color(display-p3 0.5608 0.6471 0.6627);stroke-opacity:1;" stroke-width="3.33333" stroke-linecap="round" stroke-linejoin="round"/>
<path d="M81.2859 64.572L81.2859 61.2861L81.2859 58.0003" stroke="#8FA5A9" style="stroke:#8FA5A9;stroke:color(display-p3 0.5608 0.6471 0.6627);stroke-opacity:1;" stroke-width="3.33333" stroke-linecap="round" stroke-linejoin="round"/>
<path d="M80.6666 52.5V50.6667C80.6666 50.2246 80.491 49.8007 80.1784 49.4882C79.8659 49.1756 79.4419 49 78.9999 49H70.6666C68.8985 49 67.2028 49.7024 65.9525 50.9526C64.7023 52.2029 63.9999 53.8986 63.9999 55.6667C63.9999 53.8986 63.2975 52.2029 62.0473 50.9526C60.7971 49.7024 59.1014 49 57.3333 49H48.9999C48.5579 49 48.134 49.1756 47.8214 49.4882C47.5088 49.8007 47.3333 50.2246 47.3333 50.6667V72.3333C47.3333 72.7754 47.5088 73.1993 47.8214 73.5118C48.134 73.8244 48.5579 74 48.9999 74H58.9999C60.326 74 61.5978 74.5268 62.5355 75.4645C63.4731 76.4021 63.9999 77.6739 63.9999 79C63.9999 77.6739 64.5267 76.4021 65.4644 75.4645C66.4021 74.5268 67.6738 74 68.9999 74H78.9999C79.4419 74 79.8659 73.8244 80.1784 73.5118C80.491 73.1993 80.6666 72.7754 80.6666 72.3333V70.5" stroke="#8FA5A9" style="stroke:#8FA5A9;stroke:color(display-p3 0.5608 0.6471 0.6627);stroke-opacity:1;" stroke-width="3.33333" stroke-linecap="round" stroke-linejoin="round"/>
</svg>

<svg xmlns="http://www.w3.org/2000/svg" fill="none" viewBox="0 0 128 128"><path fill="#8FA5A9" fill-rule="evenodd" d="m112.75 67.39 1.991 2.678a6.245 6.245 0 0 1-2.122 9.309l-2.953 1.615c-2.451 1.318-3.763 4.038-3.26 6.738l.613 3.252c.721 3.783-2.122 7.332-6.038 7.545l-3.369.19c-2.8.17-5.184 2.063-5.928 4.698l-.897 3.188c-1.05 3.719-5.163 5.696-8.794 4.23l-3.128-1.254c-2.603-1.042-5.578-.341-7.416 1.721l-2.21 2.508c-2.559 2.891-7.153 2.933-9.778.064l-2.253-2.466c-1.86-2.04-4.856-2.678-7.437-1.594l-3.107 1.318c-3.587 1.53-7.744-.382-8.837-4.081l-.941-3.188c-.788-2.635-3.194-4.505-5.994-4.612l-3.369-.148c-3.937-.15-6.825-3.656-6.169-7.44l.547-3.23c.482-2.7-.875-5.398-3.347-6.695l-2.975-1.573c-3.456-1.827-4.528-6.184-2.253-9.33l1.99-2.72c1.62-2.253 1.598-5.25-.065-7.46l-1.99-2.678c-2.32-3.104-1.335-7.482 2.1-9.352l2.953-1.615c2.45-1.318 3.762-4.039 3.26-6.738l-.613-3.252c-.722-3.761 2.122-7.31 6.037-7.523l3.37-.192a6.526 6.526 0 0 0 5.927-4.718l.897-3.188c1.05-3.72 5.163-5.696 8.794-4.23l3.128 1.255c2.604 1.04 5.579.34 7.416-1.722l2.21-2.508c2.559-2.89 7.153-2.933 9.778-.064l2.253 2.466c1.86 2.061 4.856 2.699 7.438 1.615l3.106-1.318c3.588-1.53 7.744.383 8.838 4.08l.94 3.189c.788 2.635 3.194 4.506 5.994 4.612l3.369.149c3.938.149 6.825 3.655 6.169 7.439l-.569 3.273c-.481 2.699.875 5.398 3.347 6.695l2.975 1.572c3.456 1.828 4.528 6.185 2.253 9.33l-1.947 2.7c-1.618 2.253-1.597 5.25.066 7.46ZM64 104c22.091 0 40-17.909 40-40S86.091 24 64 24 24 41.909 24 64s17.909 40 40 40Z" clip-rule="evenodd" style="fill:color(display-p3 .5605 .6454 .6645);fill-opacity:1"/><path stroke="#8FA5A9" stroke-linecap="round" stroke-linejoin="round" stroke-width="3.333" d="M64 79V55.667M78 61.286h6.572M81.286 64.572V58M80.667 52.5v-1.833A1.666 1.666 0 0 0 79 49h-8.333A6.667 6.667 0 0 0 64 55.667 6.667 6.667 0 0 0 57.333 49H49a1.667 1.667 0 0 0-1.667 1.667v21.666A1.666 1.666 0 0 0 49 74h10a5 5 0 0 1 5 5 5 5 0 0 1 5-5h10a1.666 1.666 0 0 0 1.667-1.667V70.5" style="stroke:color(display-p3 .5608 .6471 .6627);stroke-opacity:1"/></svg>
